src/_assets/wallet-icons/nova-wallet-star.svg

<svg viewBox="0 0 145 145" fill="none" xmlns="http://www.w3.org/2000/svg">
<path d="M0 40C0 17.9086 17.9086 0 40 0H105C127.091 0 145 17.9086 145 40V105C145 127.091 127.091 145 105 145H40C17.9086 145 0 127.091 0 105V40Z" fill="url(#paint0_linear_1014_14373)"/>
<path d="M71.515 24.6219C71.7083 23.5186 73.2917 23.5186 73.485 24.6219L79.265 57.6109C79.9918 61.7596 83.2404 65.0082 87.3891 65.7351L120.378 71.515C121.481 71.7083 121.481 73.2917 120.378 73.485L87.3891 79.265C83.2404 79.9918 79.9918 83.2404 79.265 87.3891L73.485 120.378C73.2917 121.481 71.7083 121.481 71.515 120.378L65.7351 87.3891C65.0082 83.2404 61.7596 79.9918 57.6109 79.265L24.6219 73.485C23.5186 73.2917 23.5186 71.7083 24.6219 71.515L57.6109 65.7351C61.7596 65.0082 65.0082 61.7596 65.7351 57.6109L71.515 24.6219Z" fill="white"/>
<defs>
<linearGradient id="paint0_linear_1014_14373" x1="138.302" y1="-63.9403" x2="-1.11118e-05" y2="205.228" gradientUnits="userSpaceOnUse">
<stop offset="0.205836"/>
<stop offset="0.369792" stop-color="#541E7E"/>
<stop offset="0.47142" stop-color="#3F51D1"/>
<stop offset="0.609119" stop-color="#73AFE3"/>
<stop offset="0.801091" stop-color="#90D7FF"/>
</linearGradient>
</defs>
</svg>

<svg xmlns="http://www.w3.org/2000/svg" fill="none" viewBox="0 0 145 145"><path fill="url(#a)" d="M0 40C0 17.909 17.909 0 40 0h65c22.091 0 40 17.909 40 40v65c0 22.091-17.909 40-40 40H40c-22.091 0-40-17.909-40-40z"/><path fill="#fff" d="M71.515 24.622c.193-1.103 1.777-1.103 1.97 0l5.78 32.989a10 10 0 0 0 8.124 8.124l32.989 5.78c1.103.193 1.103 1.777 0 1.97l-32.989 5.78a10 10 0 0 0-8.124 8.124l-5.78 32.989c-.193 1.103-1.777 1.103-1.97 0l-5.78-32.989a10 10 0 0 0-8.124-8.124l-32.99-5.78c-1.102-.193-1.102-1.777 0-1.97l32.99-5.78a10 10 0 0 0 8.124-8.124z"/><defs><linearGradient id="a" x1="138.302" x2="0" y1="-63.94" y2="205.228" gradientUnits="userSpaceOnUse"><stop offset=".206"/><stop offset=".37" stop-color="#541E7E"/><stop offset=".471" stop-color="#3F51D1"/><stop offset=".609" stop-color="#73AFE3"/><stop offset=".801" stop-color="#90D7FF"/></linearGradient></defs></svg>
